public/static/svgs/repository-icon.svg

<svg viewBox="0 0 92 92" xmlns="http://www.w3.org/2000/svg"><path d="M90.155 41.965L50.036 1.847a5.918 5.918 0 00-8.369 0l-8.331 8.332 10.568 10.568a7.024 7.024 0 017.229 1.684 7.03 7.03 0 011.67 7.275l10.186 10.185a7.026 7.026 0 017.275 1.671 7.04 7.04 0 010 9.957 7.041 7.041 0 01-11.492-7.658l-9.5-9.499v24.996a7.043 7.043 0 011.861 11.292 7.042 7.042 0 11-7.65-11.497V33.925a7.04 7.04 0 01-3.822-9.234l-10.418-10.42-27.51 27.508a5.92 5.92 0 000 8.371l40.121 40.118a5.92 5.92 0 008.369 0l39.932-39.932a5.92 5.92 0 000-8.371" fill="#fff"/></svg>

<svg viewBox="0 0 92 92" version="1.1" xmlns="http://www.w3.org/2000/svg"><title>Git</title><g stroke="none" fill="#fff"><path d="M90.155,41.965 L50.036,1.847 C47.726,-0.464 43.979,-0.464 41.667,1.847 L33.336,10.179 L43.904,20.747 C46.36,19.917 49.176,20.474 51.133,22.431 C53.102,24.401 53.654,27.241 52.803,29.706 L62.989,39.891 C65.454,39.041 68.295,39.59 70.264,41.562 C73.014,44.311 73.014,48.768 70.264,51.519 C67.512,54.271 63.056,54.271 60.303,51.519 C58.235,49.449 57.723,46.409 58.772,43.861 L49.272,34.362 L49.272,59.358 C49.942,59.69 50.575,60.133 51.133,60.69 C53.883,63.44 53.883,67.896 51.133,70.65 C48.383,73.399 43.924,73.399 41.176,70.65 C38.426,67.896 38.426,63.44 41.176,60.69 C41.856,60.011 42.643,59.497 43.483,59.153 L43.483,33.925 C42.643,33.582 41.858,33.072 41.176,32.389 C39.093,30.307 38.592,27.249 39.661,24.691 L29.243,14.271 L1.733,41.779 C-0.578,44.092 -0.578,47.839 1.733,50.15 L41.854,90.268 C44.164,92.578 47.91,92.578 50.223,90.268 L90.155,50.336 C92.466,48.025 92.466,44.275 90.155,41.965"></path></g></svg>
